X: 8909
T: Curlews, The
R: jig
M: 6/8
K: Bminor
|:e|fBB FBB|fec a2 e|c/d/ed cAA|EAc age|
fBB FBB|fec a2 f|g2 e f2 e|dB^A B2:|
|:A|B/c/dc BFF|DFF B/c/df|eBc AEE|[Cc]EA c/d/ec|
Bdc BFF|DFF Bdf|eBc fce|dB^A B2:|

